X: 17073
T: Heave And Go
R: polka
M: 2/4
K: Gmajor
|:D2 D>E|DG, G>E|DG, B,D|BG GB:|
d>c Bd|dB g2|d>c Bd|dB gf/e/|
dg fd|e^c dB|c>c BA|G2 AB||

